X: 1
T: Helen Scott of Humbie
C: Freeland Barbour?
S: John Buchanan's Scottish Music Tome - Harmonies from the playing of Freeland Barbour
F: https://www.youtube.com/watch?v=fr_f9gyljzs 2017-6-28
Z: Contributed 2017-06-14 10:45:45 by Steve Hunt steve.hunt1:uwclub.net
M: 3/4
L: 1/8
K: G
D2 |\
"G"G2>A2 Bd | "C"e4 "G"dB | "D7"A2>B2 "C"G2 | "G"G4 Bd |\
"C"e2>d2 e<g | "G"B2>A2 G2 | "Am"A6 | "D"A4 ||
Bd |\
"C"e2>d2 e<g | "Bm"B4 dB | "Am"A4 BG | "C"E2 "D"D2 DE |\
"C"G2e3d/e/ | "D"B2 A2>B2 | "C"G4 G2 | "G"G4 |]
DE |\
"G"G2>e2 de | "Em"B2>e2 de | "Am7"G2 B2>G2 | "C"E2 "D"D2 DE |\
"G"G2>e2 de | "Bm"B2>A2 Bd | "Em"e4 {f}ed | "Em"e4 ||
ef |\
"C"g2>f2 e<g | "G"B4 dB | "Am"A4 BG | "C"E2 "D"D2 DE |\
"C"G2 e3d/e/ | "G"B2 "D"A2>B2 | "C"G4 G2 | "G"G4 |]
